X:434
T: "Die Rettung"
N: Z1114
O: Europa, Mitteleuropa, Deutschland, Niederrhein
R: Romanze, Ballade, Hirlanda - Sage
M: 3/4
L: 1/8
K: E
=GA | B2B2=cB | BAA2
BA | =G2B2AG | =G2F2
GF | E2=G2FG | BAA2
=GF | E2=G2FD | E4

